X: 11565
Q: "Moderate."
M: 3/4
L: 1/4
K: F
f |\
c2A | d2c | B(G>F) | E2c |\
(c/d/c)A | d2c | B(G>F) | E2c |\
f2e | f2d | (g/f/e)>d | ^c3 |\
=ccc | d2c | BB2 | A2c |\
(def) | cA2 | (d/g/)e2(d/c/) | (fe)d |\
(c_e)d | B2A | GG>F | F2 |]



